icons/bag-percent-outline.svg

<svg xmlns="http://www.w3.org/2000/svg" width="24" height="24" viewBox="0 0 24 24">
  <path d="M14,2 C15.5976809,2 16.9036609,3.24891996 16.9949073,4.82372721 L17,5 L17,6 L19,6 C20.5976809,6 21.9036609,7.24891996 21.9949073,8.82372721 L22,9 L22,19 C22,20.5976809 20.75108,21.9036609 19.1762728,21.9949073 L19,22 L5,22 C3.40231912,22 2.09633912,20.75108 2.00509269,19.1762728 L2,19 L2,9 C2,7.40231912 3.24891996,6.09633912 4.82372721,6.00509269 L5,6 L7,6 L7,5 C7,3.40231912 8.24891996,2.09633912 9.82372721,2.00509269 L10,2 L14,2 Z M19,8 L5,8 C4.48716416,8 4.06449284,8.38604019 4.00672773,8.88337887 L4,9 L4,19 C4,19.5128358 4.38604019,19.9355072 4.88337887,19.9932723 L5,20 L19,20 C19.5128358,20 19.9355072,19.6139598 19.9932723,19.1166211 L20,19 L20,9 C20,8.44771525 19.5522847,8 19,8 Z M15.7071068,16.2928932 C16.0976311,16.6834175 16.0976311,17.3165825 15.7071068,17.7071068 C15.3165825,18.0976311 14.6834175,18.0976311 14.2928932,17.7071068 C13.9023689,17.3165825 13.9023689,16.6834175 14.2928932,16.2928932 C14.6834175,15.9023689 15.3165825,15.9023689 15.7071068,16.2928932 Z M15.7071068,10.2928932 C16.0675907,10.6533772 16.0953203,11.2206082 15.7902954,11.6128994 L15.7071068,11.7071068 L9.70710678,17.7071068 C9.31658249,18.0976311 8.68341751,18.0976311 8.29289322,17.7071068 C7.93240926,17.3466228 7.90467972,16.7793918 8.20970461,16.3871006 L8.29289322,16.2928932 L14.2928932,10.2928932 C14.6834175,9.90236893 15.3165825,9.90236893 15.7071068,10.2928932 Z M9.70710678,10.2928932 C10.0976311,10.6834175 10.0976311,11.3165825 9.70710678,11.7071068 C9.31658249,12.0976311 8.68341751,12.0976311 8.29289322,11.7071068 C7.90236893,11.3165825 7.90236893,10.6834175 8.29289322,10.2928932 C8.68341751,9.90236893 9.31658249,9.90236893 9.70710678,10.2928932 Z M14,4 L10,4 C9.48716416,4 9.06449284,4.38604019 9.00672773,4.88337887 L9,5 L9,6 L15,6 L15,5 C15,4.48716416 14.6139598,4.06449284 14.1166211,4.00672773 L14,4 Z"/>
</svg>

<svg xmlns="http://www.w3.org/2000/svg" viewBox="0 0 24 24">
  <path d="M14 2a3 3 0 0 1 3 2.82V6h2a3 3 0 0 1 3 2.82V19a3 3 0 0 1-2.82 3H5a3 3 0 0 1-3-2.82V9a3 3 0 0 1 2.82-3H7V5a3 3 0 0 1 2.82-3H14zm5 6H5a1 1 0 0 0-1 .88V19a1 1 0 0 0 .88 1H19a1 1 0 0 0 1-.88V9a1 1 0 0 0-1-1zm-3.3 8.3a1 1 0 1 1-1.4 1.4 1 1 0 0 1 1.4-1.4zm0-6a1 1 0 0 1 .09 1.31l-.08.1-6 6a1 1 0 0 1-1.5-1.32l.08-.1 6-6a1 1 0 0 1 1.42 0zm-6 0a1 1 0 1 1-1.4 1.4 1 1 0 0 1 1.4-1.4zM14 4h-4a1 1 0 0 0-1 .88V6h6V5a1 1 0 0 0-.88-1H14z"/>
</svg>
